X: 7
T: Paddy O'Rafferty
R: jig
M: 6/8
L: 1/8
K: Gmaj
GAB DED | DBA AGE | G2 E DB,D | G2 B AGE |GAB D3 | G2 B dBB | dcB AGA | BGF G2 :|dBB dBB | dcB A2 B | dBB dBA | G2 B AGB |dBB d2 B | def g2 B | d>cB AGA | BGF G2 :|


Tune 741	Setting 28291

